X: 2183
T: JOHN ROY STUART
Q: "Strathspey."
R: Strathspey.
%R: strathspey
B: James Kerr "Merry Melodies" v.2 p.21 #183
Z: 2016 John Chambers <jc:trillian.mit.edu>
M: C
L: 1/8
K: F
uf |\
vc>vBuA>uG F>GA>B | vc<FA>uF c<F A<f |\
c>BA>G F>GA>F | D<dd>=c d2d ::\
uf |\
vc>vduf>ug a>fg>a |
vf<c d/c/B/A/ vf<cc>uf |\
[1 c>df>g a>fg>a | vd<ag>uf d2d :|\
[2 a>fg>e f>de>=c | A<dd>=c d2d |]
